dhis-2/dhis-support/dhis-support-system/src/main/resources/SVGs/mobile_clinic_outline.svg

<svg width="48" height="48" viewBox="0 0 48 48" fill="none" xmlns="http://www.w3.org/2000/svg">
<g clip-path="url(#clip0)">
<path fill-rule="evenodd" clip-rule="evenodd" d="M4 11.4999V27.4997H31.9996V11.4999H4ZM4.51366 12.0135H31.4853V26.9854H4.51366V12.0135ZM16.4865 12.4862V16.9861H11.9866V21.0134H16.4865V25.5133H20.5138V21.0134H25.0137V16.9861H20.5138V12.4862H16.4865ZM16.9995 12.9992H19.9995V17.4991H24.4994V20.4991H19.9995V24.999H16.9995V20.4991H12.4996V17.4991H16.9995V12.9992ZM32.9993 16.4991V32.4989H35.1438C35.5878 30.9807 36.9799 29.9371 38.5617 29.9365C40.1436 29.9371 41.5356 30.9807 41.9797 32.4989H43.9997V24.499L40.1286 16.4991H32.9993ZM39.8 17.0089L43.4328 24.4951H33.5169V17.0108L39.8 17.0089ZM33.5169 25.0088L43.4856 25.0127V31.9853H42.4485C42.1425 31.199 41.6062 30.5235 40.9098 30.0473C40.2133 29.571 39.3892 29.3162 38.5455 29.3164C37.7026 29.317 36.8795 29.572 36.1839 30.048C35.4882 30.524 34.9524 31.1989 34.6466 31.9843H33.5118L33.5169 25.0088ZM3.99927 28.4988V32.4987H5.58125C6.02534 30.9807 7.41733 29.9367 8.99921 29.9367C10.5811 29.9373 11.9731 30.9809 12.4172 32.4992H14.5499C14.994 30.9809 16.386 29.9373 17.9679 29.9367C19.5498 29.9373 20.9418 30.9809 21.3859 32.4992H31.9987V28.4993L3.99927 28.4988ZM4.51293 29.0124H31.4846V31.9851H21.8949C21.5889 31.1991 21.0526 30.5239 20.3563 30.0478C19.66 29.5717 18.8361 29.3171 17.9927 29.3171C17.1498 29.3179 16.3269 29.5729 15.6313 30.0489C14.9358 30.5249 14.4001 31.1997 14.0943 31.9851H12.9009C12.595 31.199 12.0589 30.5235 11.3626 30.0473C10.6664 29.5711 9.84252 29.3162 8.99897 29.3161C8.15616 29.3169 7.33318 29.5719 6.63766 30.0479C5.94213 30.5239 5.40644 31.1987 5.10062 31.9841H4.51274L4.51293 29.0124ZM8.99917 30.4984C7.3423 30.4984 5.99921 31.8415 5.99921 33.4984C5.99921 35.1553 7.3423 36.4983 8.99917 36.4983C10.6561 36.4983 11.9991 35.1553 11.9991 33.4984C11.9991 31.8415 10.6561 30.4984 8.99917 30.4984ZM17.9679 30.4984C16.311 30.4984 14.9679 31.8415 14.9679 33.4984C14.9679 35.1553 16.311 36.4983 17.9679 36.4983C19.6247 36.4983 20.9678 35.1553 20.9678 33.4984C20.9678 31.8415 19.6247 30.4984 17.9679 30.4984ZM38.5616 30.4984C36.9047 30.4984 35.5616 31.8415 35.5616 33.4984C35.5616 35.1553 36.9047 36.4983 38.5616 36.4983C40.2185 36.4983 41.5616 35.1553 41.5616 33.4984C41.5616 31.8415 40.2185 30.4984 38.5616 30.4984ZM8.99897 31.0064C9.32544 31.0064 9.64871 31.0707 9.95033 31.1956C10.2519 31.3205 10.526 31.5037 10.7569 31.7345C10.9877 31.9653 11.1708 32.2394 11.2957 32.541C11.4207 32.8426 11.485 33.1659 11.4849 33.4924C11.485 33.8188 11.4207 34.1421 11.2957 34.4437C11.1708 34.7453 10.9877 35.0194 10.7569 35.2502C10.526 35.4811 10.2519 35.6642 9.95033 35.7891C9.64871 35.9141 9.32544 35.9784 8.99897 35.9783C8.67248 35.9784 8.34918 35.9141 8.04753 35.7892C7.74588 35.6643 7.47178 35.4812 7.24091 35.2504C7.01003 35.0195 6.82689 34.7454 6.70194 34.4438C6.577 34.1422 6.51269 33.8189 6.51271 33.4924C6.51269 33.1659 6.577 32.8426 6.70194 32.5409C6.82689 32.2393 7.01003 31.9652 7.24091 31.7344C7.47178 31.5035 7.74588 31.3204 8.04753 31.1955C8.34918 31.0706 8.67248 31.0063 8.99897 31.0064ZM17.9579 31.0064C18.2844 31.0063 18.6077 31.0706 18.9094 31.1956C19.2111 31.3205 19.4852 31.5036 19.716 31.7345C19.9469 31.9654 20.1301 32.2395 20.255 32.5412C20.3799 32.8428 20.4442 33.1662 20.4441 33.4927C20.4442 33.8192 20.3799 34.1425 20.255 34.4442C20.1301 34.7459 19.9469 35.02 19.716 35.2508C19.4852 35.4817 19.2111 35.6649 18.9094 35.7898C18.6077 35.9147 18.2844 35.979 17.9579 35.9789C17.2988 35.9785 16.6668 35.7164 16.2009 35.2502C15.735 34.7839 15.4734 34.1518 15.4735 33.4927C15.4734 32.8336 15.735 32.2014 16.2009 31.7352C16.6668 31.2689 17.2988 31.0068 17.9579 31.0064ZM38.5626 31.0064C38.8891 31.0063 39.2124 31.0706 39.5141 31.1956C39.8158 31.3205 40.0899 31.5036 40.3208 31.7345C40.5517 31.9654 40.7348 32.2395 40.8597 32.5412C40.9847 32.8428 41.0489 33.1662 41.0489 33.4927C41.0489 33.8192 40.9847 34.1425 40.8597 34.4442C40.7348 34.7459 40.5517 35.02 40.3208 35.2508C40.0899 35.4817 39.8158 35.6649 39.5141 35.7898C39.2124 35.9147 38.8891 35.979 38.5626 35.9789C37.9035 35.9785 37.2715 35.7164 36.8057 35.2502C36.3398 34.7839 36.0781 34.1518 36.0782 33.4927C36.0781 32.8336 36.3398 32.2014 36.8057 31.7352C37.2715 31.2689 37.9035 31.0068 38.5626 31.0064Z" fill="#333333"/>
</g>
<defs>
<clipPath id="clip0">
<rect width="48" height="48" fill="white"/>
</clipPath>
</defs>
</svg>

<?xml version="1.0" encoding="UTF-8" standalone="no"?>
<!-- Created with Inkscape (http://www.inkscape.org/) -->
<svg id="svg8" xmlns:rdf="http://www.w3.org/1999/02/22-rdf-syntax-ns#" xmlns="http://www.w3.org/2000/svg" xmlns:osb="http://www.openswatchbook.org/uri/2009/osb" height="48" width="48" version="1.1" xmlns:cc="http://creativecommons.org/ns#" viewBox="0 0 12.7 12.7" xmlns:dc="http://purl.org/dc/elements/1.1/">
 <title id="title4753">UIO-icon</title>
 <metadata id="metadata5">
  <rdf:RDF>
   <cc:Work rdf:about="">
    <dc:format>image/svg+xml</dc:format>
    <dc:type rdf:resource="http://purl.org/dc/dcmitype/StillImage"/>
    <dc:title>UIO-icon</dc:title>
    <dc:creator>
     <cc:Agent>
      <dc:title>Joaquín Urbano</dc:title>
     </cc:Agent>
    </dc:creator>
    <dc:rights>
     <cc:Agent>
      <dc:title>GPL</dc:title>
     </cc:Agent>
    </dc:rights>
   </cc:Work>
  </rdf:RDF>
 </metadata>
 <g id="layer1" fill="#333" transform="translate(0,-284.3)">
  <path id="path1234" d="m8.6765 278.03v1.1906h-1.1906v0.79375h1.1906v1.1906h0.79375v-1.1906h1.1906v-0.79375h-1.1908v-1.1906z" fill-rule="evenodd"/>
  <path id="rect878" d="m4 11.5v16h28v-16zm0.51367 0.51367h26.972v14.972h-26.972zm11.973 0.47266v4.5h-4.5v4.0273h4.5v4.5h4.0273v-4.5h4.5v-4.0273h-4.5v-4.5zm0.513 0.513h3v4.5h4.5v3h-4.5v4.5h-3v-4.5h-4.5v-3h4.5zm16 3.5v16h2.1445c0.44404-1.5183 1.8361-2.5619 3.418-2.5625 1.5819 0.00057789 2.9739 1.0442 3.418 2.5625h2.02v-8l-3.8711-8zm6.8008 0.50977 3.6328 7.4863h-9.916v-7.4844zm-6.2832 8 9.9688 0.003906v6.9727h-1.0371a4.1874 4.1874 0 0 0 -3.903 -2.669 4.1874 4.1874 0 0 0 -3.899 2.668h-1.1348zm-29.518 3.49v4h1.582c0.4441-1.518 1.8361-2.562 3.418-2.562 1.5819 0.00057789 2.9739 1.0442 3.418 2.5625h2.1328c0.44404-1.5183 1.8361-2.5619 3.418-2.5625 1.5819 0.00057789 2.9739 1.0442 3.418 2.5625h10.613v-4zm0.51367 0.51367h26.972v2.9727h-9.5898a4.1874 4.1874 0 0 0 -3.9023 -2.668 4.1874 4.1874 0 0 0 -3.8984 2.668h-1.1934a4.1874 4.1874 0 0 0 -3.902 -2.669 4.1874 4.1874 0 0 0 -3.8984 2.668h-0.58789zm4.4863 1.486c-1.6569 0-3 1.3431-3 3-2.6e-8 1.6569 1.3431 3 3 3s3-1.3431 3-3c2e-8 -1.6569-1.3431-3-3-3zm8.9688 0c-1.6569 0-3 1.3431-3 3-2e-8 1.6569 1.3431 3 3 3s3-1.3431 3-3c2e-8 -1.6569-1.3431-3-3-3zm20.594 0c-1.6569 0-3 1.3431-3 3-2e-8 1.6569 1.3431 3 3 3s3-1.3431 3-3c4e-8 -1.6569-1.3431-3-3-3zm-29.563 0.508a2.4859 2.4859 0 0 1 2.486 2.486 2.4859 2.4859 0 0 1 -2.486 2.486 2.4859 2.4859 0 0 1 -2.4863 -2.486 2.4859 2.4859 0 0 1 2.4863 -2.486zm8.959 0a2.4859 2.4859 0 0 1 2.4863 2.4863 2.4859 2.4859 0 0 1 -2.4863 2.4863 2.4859 2.4859 0 0 1 -2.4844 -2.4863 2.4859 2.4859 0 0 1 2.4844 -2.4863zm20.605 0a2.4859 2.4859 0 0 1 2.4863 2.4863 2.4859 2.4859 0 0 1 -2.4863 2.4863 2.4859 2.4859 0 0 1 -2.4844 -2.4863 2.4859 2.4859 0 0 1 2.4844 -2.4863z" fill-rule="evenodd" transform="matrix(.26458 0 0 .26458 0 284.3)"/>
 </g>
</svg>
